!! 00000] TT[WS
!!!OTL: Gege laile xinshang le
!!!ARE: Asia, China, Shanxi Hequ
!! Ethnic Group: Han
!! WII, 25
!!!SCT: J0432
!!!YEM: Copyright 1995, estate of Helmut Schaffrath.
**kern
*ICvox
*Ivox
*M2/4
*k[f#c#]
*D:
{8f#
8a
8b
8b
=1
8.dd
16ee
8b
8a
=2
8e
8f#
8b
8a
=3
2f#}
=4
{8f#
8a
8b
8b
=5
8.dd
16ee
8b
8a
=6
8e
8f#
8b
8a
=7
2B}
==
!!!AGN: Shange, Shanqu. Qingge
!!!ONB: ESAC (Essen Associative Code) Database: CHINA
!!!AMT: simple duple
!!!AIN: vox
!!!EED: Helmut Schaffrath
!!!EEV: 1.0
*-
